X: 1186
T: An Comhra Donn
R: hornpipe
M: 4/4
K: Dmajor
FG|ABAG FAde|f3e dcdA|BcdB AFDE|FEED E2FG|
ABAG FAde|fgfe dcdA|BcdB AFEG|F2D2 D2:|
fg|agfd gfec|dcde fdAF|GBEG FADF|Efgf eAce|
agfd gfec|dcde fdAF|GBEG FAEG|F2D2 D2:|

